img/bg--warai-kamen.svg

<svg height="550" viewBox="0 0 490 550" width="490" xmlns="http://www.w3.org/2000/svg"><g fill="#fff" fill-rule="evenodd" opacity=".1"><path d="m260 111.111111h-140v-17.111111c0-7.7319865 6.268014-14 14-14h112c7.731986 0 14 6.2680135 14 14zm0 11.666667v38.888889h-23.333333-89.831463-8.521514c5.312503 23.59645 26.39682 41.222222 51.597856 41.222222 20.834696 0 38.85562-12.047187 47.476768-29.555556h22.611686v32.666667c0 7.731986-6.268014 14-14 14h-112c-7.731986 0-14-6.268014-14-14v-83.222222zm-104.137662 50.555555 68.098408.000002c-7.424519 10.855275-19.904947 17.978955-34.0492 17.978955-14.144252 0-26.62468-7.12368-34.049199-17.978955zm-17.364017-22.555555h11.933789c1.3122-4.061966 5.124715-7 9.623446-7 4.49873 0 8.311245 2.938034 9.623445 7h11.933789c-1.509603-10.553804-10.585989-18.666667-21.557234-18.666667-10.971246 0-20.047632 8.112863-21.557235 18.666667zm59.888889 0h11.933789c1.3122-4.061966 5.124715-7 9.623445-7 4.498731 0 8.311246 2.938034 9.623446 7h11.933789c-1.509603-10.553804-10.585989-18.666667-21.557235-18.666667-10.971245 0-20.047631 8.112863-21.557234 18.666667z"/><path d="m380 441.111111h-140v-17.111111c0-7.731986 6.268014-14 14-14h112c7.731986 0 14 6.268014 14 14zm0 11.666667v38.888889h-23.333333-89.831463-8.521514c5.312503 23.59645 26.39682 41.222222 51.597856 41.222222 20.834696 0 38.85562-12.047187 47.476768-29.555556h22.611686v32.666667c0 7.731986-6.268014 14-14 14h-112c-7.731986 0-14-6.268014-14-14v-83.222222zm-104.137662 50.555555 68.098408.000002c-7.424519 10.855275-19.904947 17.978955-34.0492 17.978955-14.144252 0-26.62468-7.12368-34.049199-17.978955zm-17.364017-22.555555h11.933789c1.3122-4.061966 5.124715-7 9.623446-7 4.49873 0 8.311245 2.938034 9.623445 7h11.933789c-1.509603-10.553804-10.585989-18.666667-21.557234-18.666667-10.971246 0-20.047632 8.112863-21.557235 18.666667zm59.888889 0h11.933789c1.3122-4.061966 5.124715-7 9.623445-7 4.498731 0 8.311246 2.938034 9.623446 7h11.933789c-1.509603-10.553804-10.585989-18.666667-21.557235-18.666667-10.971245 0-20.047631 8.112863-21.557234 18.666667z"/><path d="m159 307.777778h-80v-9.777778c0-4.418278 3.581722-8 8-8h64c4.418278 0 8 3.581722 8 8zm0 6.666666v22.222223h-13.333333-51.3322646-4.8694366c3.0357158 13.483685 15.0838972 23.555555 29.4844892 23.555555 11.90554 0 22.203211-6.884106 27.129581-16.888889h12.920964v18.666667c0 4.418278-3.581722 8-8 8h-64c-4.418278 0-8-3.581722-8-8v-47.555556zm-59.5072353 28.888889 38.9133753.000001c-4.242582 6.203015-11.374255 10.273689-19.456685 10.273689s-15.214103-4.070674-19.4566852-10.273689zm-9.9222956-12.888889h6.8193081c.7498285-2.321123 2.9284088-4 5.4991118-4s4.749283 1.678877 5.499112 4h6.819308c-.862631-6.030745-6.049137-10.666666-12.31842-10.666666-6.2692835 0-11.4557894 4.635921-12.3184199 10.666666zm34.2222219 0h6.819308c.749829-2.321123 2.928409-4 5.499112-4s4.749283 1.678877 5.499112 4h6.819308c-.862631-6.030745-6.049136-10.666666-12.31842-10.666666-6.269283 0-11.455789 4.635921-12.31842 10.666666z"/><path d="m390 247.777778h-80v-9.777778c0-4.418278 3.581722-8 8-8h64c4.418278 0 8 3.581722 8 8zm0 6.666666v22.222223h-13.333333-51.332265-4.869436c3.035716 13.483685 15.083897 23.555555 29.484489 23.555555 11.90554 0 22.203211-6.884106 27.129581-16.888889h12.920964v18.666667c0 4.418278-3.581722 8-8 8h-64c-4.418278 0-8-3.581722-8-8v-47.555556zm-59.507235 28.888889 38.913375.000001c-4.242582 6.203015-11.374255 10.273689-19.456685 10.273689s-15.214103-4.070674-19.456685-10.273689zm-9.922296-12.888889h6.819308c.749829-2.321123 2.928409-4 5.499112-4s4.749283 1.678877 5.499112 4h6.819308c-.862631-6.030745-6.049137-10.666666-12.31842-10.666666-6.269284 0-11.455789 4.635921-12.31842 10.666666zm34.222222 0h6.819308c.749829-2.321123 2.928409-4 5.499112-4s4.749283 1.678877 5.499112 4h6.819308c-.862631-6.030745-6.049136-10.666666-12.31842-10.666666-6.269283 0-11.455789 4.635921-12.31842 10.666666z"/><path d="m490 17.7777778h-80v-9.7777778c0-4.418278 3.581722-8 8-8h64c4.418278 0 8 3.581722 8 8zm0 6.6666666v22.2222223h-13.333333-51.332265-4.869436c3.035716 13.4836856 15.083897 23.5555555 29.484489 23.5555555 11.90554 0 22.203211-6.8841067 27.129581-16.8888889h12.920964v18.6666667c0 4.418278-3.581722 8-8 8h-64c-4.418278 0-8-3.581722-8-8v-47.5555556zm-59.507235 28.8888889 38.913375.0000011c-4.242582 6.2030143-11.374255 10.2736885-19.456685 10.2736885s-15.214103-4.0706742-19.456685-10.2736885zm-9.922296-12.8888889h6.819308c.749829-2.3211235 2.928409-4 5.499112-4s4.749283 1.6788765 5.499112 4h6.819308c-.862631-6.0307451-6.049137-10.6666666-12.31842-10.6666666-6.269284 0-11.455789 4.6359215-12.31842 10.6666666zm34.222222 0h6.819308c.749829-2.3211235 2.928409-4 5.499112-4s4.749283 1.6788765 5.499112 4h6.819308c-.862631-6.0307451-6.049136-10.6666666-12.31842-10.6666666-6.269283 0-11.455789 4.6359215-12.31842 10.6666666z"/><path d="m80 127.777778h-80v-9.777778c0-4.418278 3.581722-8 8-8h64c4.418278 0 8 3.581722 8 8zm0 6.666666v22.222223h-13.3333333-51.3322643-4.8694366c3.0357158 13.483685 15.0838969 23.555555 29.4844893 23.555555 11.9055401 0 22.2032109-6.884106 27.1295812-16.888889h12.9209637v18.666667c0 4.418278-3.581722 8-8 8h-64c-4.418278 0-8-3.581722-8-8v-47.555556zm-59.5072353 28.888889 38.9133758.000001c-4.2425822 6.203015-11.3742553 10.273689-19.4566854 10.273689-8.08243 0-15.2141031-4.070674-19.4566853-10.273689zm-9.9222956-12.888889h6.8193081c.7498285-2.321123 2.9284088-4 5.4991117-4s4.7492832 1.678877 5.4991117 4h6.8193081c-.8626305-6.030745-6.0491364-10.666666-12.3184198-10.666666s-11.4557893 4.635921-12.3184198 10.666666zm34.2222222 0h6.8193081c.7498285-2.321123 2.9284088-4 5.4991117-4s4.7492832 1.678877 5.4991117 4h6.8193081c-.8626305-6.030745-6.0491364-10.666666-12.3184198-10.666666s-11.4557893 4.635921-12.3184198 10.666666z"/></g></svg>

<?xml version="1.0" encoding="UTF-8"?>
<svg width="490px" height="550px" viewBox="0 0 490 550" version="1.1" xmlns="http://www.w3.org/2000/svg" xmlns:xlink="http://www.w3.org/1999/xlink">
    <!-- Generator: Sketch 56.3 (81716) - https://sketch.com -->
    <title>bg--warai-kamen</title>
    <desc>Created with Sketch.</desc>
    <g id="Website" stroke="none" stroke-width="1" fill="none" fill-rule="evenodd" opacity="0.100000001">
        <g id="Maskbook-Website" transform="translate(0.000000, -2940.000000)" fill="#FFFFFF">
            <g id="Section-4" transform="translate(0.000000, 2910.000000)">
                <g id="bg--warai-kamen" transform="translate(0.000000, 30.000000)">
                    <path d="M260,111.111111 L120,111.111111 L120,94 C120,86.2680135 126.268014,80 134,80 L246,80 C253.731986,80 260,86.2680135 260,94 L260,111.111111 Z M260,122.777778 L260,161.666667 L236.666667,161.666667 L146.835204,161.666667 L138.31369,161.666667 C143.626193,185.263117 164.71051,202.888889 189.911546,202.888889 C210.746242,202.888889 228.767166,190.841702 237.388314,173.333333 L260,173.333333 L260,206 C260,213.731986 253.731986,220 246,220 L134,220 C126.268014,220 120,213.731986 120,206 L120,122.777778 L260,122.777778 Z M155.862338,173.333333 L223.960746,173.333335 C216.536227,184.18861 204.055799,191.31229 189.911546,191.31229 C175.767294,191.31229 163.286866,184.18861 155.862347,173.333335 Z M138.498321,150.777778 L150.43211,150.777778 C151.74431,146.715812 155.556825,143.777778 160.055556,143.777778 C164.554286,143.777778 168.366801,146.715812 169.679001,150.777778 L181.61279,150.777778 C180.103187,140.223974 171.026801,132.111111 160.055556,132.111111 C149.08431,132.111111 140.007924,140.223974 138.498321,150.777778 Z M198.38721,150.777778 L210.320999,150.777778 C211.633199,146.715812 215.445714,143.777778 219.944444,143.777778 C224.443175,143.777778 228.25569,146.715812 229.56789,150.777778 L241.501679,150.777778 C239.992076,140.223974 230.91569,132.111111 219.944444,132.111111 C208.973199,132.111111 199.896813,140.223974 198.38721,150.777778 Z" id="lg"></path>
                    <path d="M380,441.111111 L240,441.111111 L240,424 C240,416.268014 246.268014,410 254,410 L366,410 C373.731986,410 380,416.268014 380,424 L380,441.111111 Z M380,452.777778 L380,491.666667 L356.666667,491.666667 L266.835204,491.666667 L258.31369,491.666667 C263.626193,515.263117 284.71051,532.888889 309.911546,532.888889 C330.746242,532.888889 348.767166,520.841702 357.388314,503.333333 L380,503.333333 L380,536 C380,543.731986 373.731986,550 366,550 L254,550 C246.268014,550 240,543.731986 240,536 L240,452.777778 L380,452.777778 Z M275.862338,503.333333 L343.960746,503.333335 C336.536227,514.18861 324.055799,521.31229 309.911546,521.31229 C295.767294,521.31229 283.286866,514.18861 275.862347,503.333335 Z M258.498321,480.777778 L270.43211,480.777778 C271.74431,476.715812 275.556825,473.777778 280.055556,473.777778 C284.554286,473.777778 288.366801,476.715812 289.679001,480.777778 L301.61279,480.777778 C300.103187,470.223974 291.026801,462.111111 280.055556,462.111111 C269.08431,462.111111 260.007924,470.223974 258.498321,480.777778 Z M318.38721,480.777778 L330.320999,480.777778 C331.633199,476.715812 335.445714,473.777778 339.944444,473.777778 C344.443175,473.777778 348.25569,476.715812 349.56789,480.777778 L361.501679,480.777778 C359.992076,470.223974 350.91569,462.111111 339.944444,462.111111 C328.973199,462.111111 319.896813,470.223974 318.38721,480.777778 Z" id="lg"></path>
                    <path d="M159,307.777778 L79,307.777778 L79,298 C79,293.581722 82.581722,290 87,290 L151,290 C155.418278,290 159,293.581722 159,298 L159,307.777778 Z M159,314.444444 L159,336.666667 L145.666667,336.666667 L94.3344024,336.666667 L89.4649658,336.666667 C92.5006816,350.150352 104.548863,360.222222 118.949455,360.222222 C130.854995,360.222222 141.152666,353.338116 146.079036,343.333333 L159,343.333333 L159,362 C159,366.418278 155.418278,370 151,370 L87,370 C82.581722,370 79,366.418278 79,362 L79,314.444444 L159,314.444444 Z M99.4927647,343.333333 L138.40614,343.333334 C134.163558,349.536349 127.031885,353.607023 118.949455,353.607023 C110.867025,353.607023 103.735352,349.536349 99.4927698,343.333334 Z M89.5704691,330.444444 L96.3897772,330.444444 C97.1396057,328.123321 99.318186,326.444444 101.888889,326.444444 C104.459592,326.444444 106.638172,328.123321 107.388001,330.444444 L114.207309,330.444444 C113.344678,324.413699 108.158172,319.777778 101.888889,319.777778 C95.6196055,319.777778 90.4330996,324.413699 89.5704691,330.444444 Z M123.792691,330.444444 L130.611999,330.444444 C131.361828,328.123321 133.540408,326.444444 136.111111,326.444444 C138.681814,326.444444 140.860394,328.123321 141.610223,330.444444 L148.429531,330.444444 C147.5669,324.413699 142.380395,319.777778 136.111111,319.777778 C129.841828,319.777778 124.655322,324.413699 123.792691,330.444444 Z" id="sm"></path>
                    <path d="M390,247.777778 L310,247.777778 L310,238 C310,233.581722 313.581722,230 318,230 L382,230 C386.418278,230 390,233.581722 390,238 L390,247.777778 Z M390,254.444444 L390,276.666667 L376.666667,276.666667 L325.334402,276.666667 L320.464966,276.666667 C323.500682,290.150352 335.548863,300.222222 349.949455,300.222222 C361.854995,300.222222 372.152666,293.338116 377.079036,283.333333 L390,283.333333 L390,302 C390,306.418278 386.418278,310 382,310 L318,310 C313.581722,310 310,306.418278 310,302 L310,254.444444 L390,254.444444 Z M330.492765,283.333333 L369.40614,283.333334 C365.163558,289.536349 358.031885,293.607023 349.949455,293.607023 C341.867025,293.607023 334.735352,289.536349 330.49277,283.333334 Z M320.570469,270.444444 L327.389777,270.444444 C328.139606,268.123321 330.318186,266.444444 332.888889,266.444444 C335.459592,266.444444 337.638172,268.123321 338.388001,270.444444 L345.207309,270.444444 C344.344678,264.413699 339.158172,259.777778 332.888889,259.777778 C326.619605,259.777778 321.4331,264.413699 320.570469,270.444444 Z M354.792691,270.444444 L361.611999,270.444444 C362.361828,268.123321 364.540408,266.444444 367.111111,266.444444 C369.681814,266.444444 371.860394,268.123321 372.610223,270.444444 L379.429531,270.444444 C378.5669,264.413699 373.380395,259.777778 367.111111,259.777778 C360.841828,259.777778 355.655322,264.413699 354.792691,270.444444 Z" id="sm"></path>
                    <path d="M490,17.7777778 L410,17.7777778 L410,8 C410,3.581722 413.581722,8.11624501e-16 418,0 L482,0 C486.418278,-8.11624501e-16 490,3.581722 490,8 L490,17.7777778 Z M490,24.4444444 L490,46.6666667 L476.666667,46.6666667 L425.334402,46.6666667 L420.464966,46.6666667 C423.500682,60.1503523 435.548863,70.2222222 449.949455,70.2222222 C461.854995,70.2222222 472.152666,63.3381155 477.079036,53.3333333 L490,53.3333333 L490,72 C490,76.418278 486.418278,80 482,80 L418,80 C413.581722,80 410,76.418278 410,72 L410,24.4444444 L490,24.4444444 Z M430.492765,53.3333333 L469.40614,53.3333344 C465.163558,59.5363487 458.031885,63.6070229 449.949455,63.6070229 C441.867025,63.6070229 434.735352,59.5363487 430.49277,53.3333344 Z M420.570469,40.4444444 L427.389777,40.4444444 C428.139606,38.1233209 430.318186,36.4444444 432.888889,36.4444444 C435.459592,36.4444444 437.638172,38.1233209 438.388001,40.4444444 L445.207309,40.4444444 C444.344678,34.4136993 439.158172,29.7777778 432.888889,29.7777778 C426.619605,29.7777778 421.4331,34.4136993 420.570469,40.4444444 Z M454.792691,40.4444444 L461.611999,40.4444444 C462.361828,38.1233209 464.540408,36.4444444 467.111111,36.4444444 C469.681814,36.4444444 471.860394,38.1233209 472.610223,40.4444444 L479.429531,40.4444444 C478.5669,34.4136993 473.380395,29.7777778 467.111111,29.7777778 C460.841828,29.7777778 455.655322,34.4136993 454.792691,40.4444444 Z" id="sm"></path>
                    <path d="M80,127.777778 L0,127.777778 L0,118 C-5.41083001e-16,113.581722 3.581722,110 8,110 L72,110 C76.418278,110 80,113.581722 80,118 L80,127.777778 Z M80,134.444444 L80,156.666667 L66.6666667,156.666667 L15.3344024,156.666667 L10.4649658,156.666667 C13.5006816,170.150352 25.5488627,180.222222 39.9494551,180.222222 C51.8549952,180.222222 62.152666,173.338116 67.0790363,163.333333 L80,163.333333 L80,182 C80,186.418278 76.418278,190 72,190 L8,190 C3.581722,190 5.41083001e-16,186.418278 0,182 L0,134.444444 L80,134.444444 Z M20.4927647,163.333333 L59.4061405,163.333334 C55.1635583,169.536349 48.0318852,173.607023 39.9494551,173.607023 C31.8670251,173.607023 24.735352,169.536349 20.4927698,163.333334 Z M10.5704691,150.444444 L17.3897772,150.444444 C18.1396057,148.123321 20.318186,146.444444 22.8888889,146.444444 C25.4595918,146.444444 27.6381721,148.123321 28.3880006,150.444444 L35.2073087,150.444444 C34.3446782,144.413699 29.1581723,139.777778 22.8888889,139.777778 C16.6196055,139.777778 11.4330996,144.413699 10.5704691,150.444444 Z M44.7926913,150.444444 L51.6119994,150.444444 C52.3618279,148.123321 54.5404082,146.444444 57.1111111,146.444444 C59.681814,146.444444 61.8603943,148.123321 62.6102228,150.444444 L69.4295309,150.444444 C68.5669004,144.413699 63.3803945,139.777778 57.1111111,139.777778 C50.8418277,139.777778 45.6553218,144.413699 44.7926913,150.444444 Z" id="sm"></path>
                </g>
            </g>
        </g>
    </g>
</svg>
